svgs/duotone/square-1.svg

<svg xmlns="http://www.w3.org/2000/svg" viewBox="0 0 448 512"><!-- Font Awesome Pro 6.0.0-alpha2 by @fontawesome - https://fontawesome.com License - https://fontawesome.com/license (Commercial License) --><defs><style>.fa-secondary{opacity:.4}</style></defs><path d="M384 32H64C28.654 32 0 60.654 0 96V416C0 451.346 28.654 480 64 480H384C419.348 480 448 451.346 448 416V96C448 60.654 419.348 32 384 32ZM288 384H160C146.75 384 136 373.25 136 360S146.75 336 160 336H200V196.844L185.312 206.625C174.266 213.938 159.359 210.969 152.031 199.969C144.672 188.938 147.656 174.031 158.688 166.688L210.688 132.031C218.078 127.094 227.547 126.656 235.328 130.844C243.125 135.031 248 143.156 248 152V336H288C301.25 336 312 346.75 312 360S301.25 384 288 384Z" class="fa-secondary"/><path d="M312 360C312 373.25 301.25 384 288 384H160C146.75 384 136 373.25 136 360S146.75 336 160 336H200V196.844L185.312 206.625C174.266 213.938 159.359 210.969 152.031 199.969C144.672 188.938 147.656 174.031 158.688 166.688L210.688 132.031C218.078 127.094 227.547 126.656 235.328 130.844C243.125 135.031 248 143.156 248 152V336H288C301.25 336 312 346.75 312 360Z" class="fa-primary"/></svg>

<svg xmlns="http://www.w3.org/2000/svg" viewBox="0 0 448 512"><!--! Font Awesome Pro 6.3.0 by @fontawesome - https://fontawesome.com License - https://fontawesome.com/license (Commercial License) Copyright 2023 Fonticons, Inc. --><defs><style>.fa-secondary{opacity:.4}</style></defs><path class="fa-primary" d="M312 360c0 13.25-10.75 24-24 24H160c-13.25 0-24-10.75-24-24S146.8 336 160 336h40V196.8L185.3 206.6C174.3 213.9 159.4 210.1 152 199.1C144.7 188.9 147.7 174 158.7 166.7l52-34.66c7.391-4.938 16.86-5.375 24.64-1.188C243.1 135 248 143.2 248 152v184H288C301.3 336 312 346.8 312 360z"/><path class="fa-secondary" d="M384 32H64C28.65 32 0 60.65 0 96v320c0 35.35 28.65 64 64 64h320c35.35 0 64-28.65 64-64V96C448 60.65 419.3 32 384 32zM288 384H160c-13.25 0-24-10.75-24-24S146.8 336 160 336h40V196.8L185.3 206.6C174.3 213.9 159.4 210.1 152 199.1C144.7 188.9 147.7 174 158.7 166.7l52-34.66c7.391-4.938 16.86-5.375 24.64-1.188C243.1 135 248 143.2 248 152v184H288c13.25 0 24 10.75 24 24S301.3 384 288 384z"/></svg>
